X:281
T:Corner House Jig #2, The 
C:Joe Buchanan's Scottish Tome - Page 322.2
I:322 2
R:Jig
Z:Carl Allison
L:1/8
M:6/8
K:C
B | Add dcd | fed A2 d | Bee edc | Bee cBA | Bdd dcd | fed A2 d | Bdd cBc | d2 d :|
A/G/ | FAA AFD | GBB BAG | Acc cBc | dcd BAG | FAA AFD | GBB BAG |d2 d :|

